public/images/logo/python.svg

<svg width="100" height="100" viewBox="0 0 100 100" fill="none" xmlns="http://www.w3.org/2000/svg">
<path d="M49.5241 9.56874C46.2257 9.58436 43.0773 9.86483 40.3054 10.3555C32.1413 11.7976 30.6601 14.8164 30.6601 20.3844V27.7367H49.9515V30.1875H23.4194C17.8132 30.1875 12.9038 33.557 11.3679 39.9695C9.59601 47.3172 9.51788 51.9031 11.3679 59.5758C12.739 65.2875 16.014 69.3562 21.621 69.3562H28.2546V60.5422C28.2546 54.1742 33.7632 48.5578 40.3062 48.5578H59.5757C64.9398 48.5578 69.221 44.1406 69.221 38.7547V20.3851C69.221 15.1562 64.8101 11.2289 59.5757 10.3562C56.2601 9.80467 52.8218 9.55389 49.5241 9.56874ZM39.0913 15.482C41.0835 15.482 42.7116 17.1359 42.7116 19.1703C42.7116 21.1961 41.0843 22.8344 39.0913 22.8344C37.0913 22.8344 35.4718 21.1961 35.4718 19.1703C35.471 17.1359 37.0913 15.482 39.0913 15.482Z" fill="url(#paint0_linear_0_230)"/>
<path d="M71.6266 30.1875V38.7547C71.6266 45.3953 65.9953 50.9851 59.575 50.9851H40.3055C35.0273 50.9851 30.6602 55.5031 30.6602 60.7891V79.1601C30.6602 84.3875 35.2055 87.4633 40.3055 88.9625C46.4117 90.757 52.268 91.082 59.575 88.9625C64.4312 87.5555 69.2203 84.7258 69.2203 79.1601V71.807H49.9516V69.3555H78.8672C84.4734 69.3555 86.5641 65.4453 88.5141 59.575C90.5281 53.532 90.4414 47.7203 88.5141 39.9687C87.1281 34.3867 84.482 30.1867 78.8672 30.1867L71.6266 30.1875ZM60.7883 76.7086C62.7891 76.7086 64.4086 78.3469 64.4086 80.3742C64.4086 82.407 62.7883 84.0609 60.7883 84.0609C58.7961 84.0609 57.1688 82.407 57.1688 80.3742C57.1688 78.3469 58.7961 76.7086 60.7883 76.7086Z" fill="url(#paint1_linear_0_230)"/>
<path opacity="0.444" d="M76.0226 93.4352C76.0226 96.2031 64.4476 98.4477 50.1703 98.4477C35.8921 98.4477 24.3171 96.2031 24.3171 93.4352C24.3171 90.6672 35.8914 88.4219 50.1703 88.4219C64.4476 88.4219 76.0226 90.6656 76.0226 93.4352Z" fill="url(#paint2_radial_0_230)"/>
<defs>
<linearGradient id="paint0_linear_0_230" x1="8.0756" y1="11.8677" x2="52.5707" y2="49.8129" gradientUnits="userSpaceOnUse">
<stop stop-color="#5A9FD4"/>
<stop offset="1" stop-color="#306998"/>
</linearGradient>
<linearGradient id="paint1_linear_0_230" x1="69.3116" y1="73.4003" x2="53.3549" y2="51.0236" gradientUnits="userSpaceOnUse">
<stop stop-color="#FFD43B"/>
<stop offset="1" stop-color="#FFE873"/>
</linearGradient>
<radialGradient id="paint2_radial_0_230" cx="0" cy="0" r="1" gradientUnits="userSpaceOnUse" gradientTransform="translate(50.0658 93.2916) rotate(-90) scale(5.01431 22.0421)">
<stop stop-color="#B8B8B8" stop-opacity="0.498"/>
<stop offset="1" stop-color="#7F7F7F" stop-opacity="0"/>
</radialGradient>
</defs>
</svg>

<svg xmlns="http://www.w3.org/2000/svg" width="100" height="100" fill="none"><path fill="url(#a)" d="M49.524 9.569c-3.298.015-6.447.296-9.219.786-8.164 1.443-9.645 4.461-9.645 10.03v7.352h19.292v2.45H23.419c-5.606 0-10.515 3.37-12.051 9.782-1.772 7.348-1.85 11.934 0 19.607 1.371 5.711 4.646 9.78 10.253 9.78h6.634v-8.814c0-6.368 5.508-11.984 12.051-11.984h19.27c5.364 0 9.645-4.417 9.645-9.803v-18.37c0-5.229-4.41-9.156-9.645-10.029a60.264 60.264 0 0 0-10.052-.787Zm-10.433 5.913c1.992 0 3.62 1.654 3.62 3.688 0 2.026-1.627 3.664-3.62 3.664-2 0-3.62-1.638-3.62-3.664 0-2.034 1.62-3.688 3.62-3.688Z"/><path fill="url(#b)" d="M71.627 30.188v8.567c0 6.64-5.632 12.23-12.052 12.23h-19.27c-5.278 0-9.645 4.518-9.645 9.804V79.16c0 5.228 4.546 8.303 9.646 9.803 6.106 1.794 11.962 2.119 19.269 0 4.856-1.407 9.645-4.237 9.645-9.803v-7.353H49.952v-2.451h28.915c5.606 0 7.697-3.91 9.647-9.781 2.014-6.043 1.927-11.855 0-19.606-1.386-5.582-4.032-9.782-9.647-9.782h-7.24Zm-10.839 46.52c2.001 0 3.62 1.639 3.62 3.666 0 2.033-1.62 3.687-3.62 3.687-1.992 0-3.62-1.654-3.62-3.687 0-2.027 1.628-3.665 3.62-3.665Z"/><path fill="url(#c)" d="M76.023 93.435c0 2.768-11.575 5.013-25.853 5.013-14.278 0-25.853-2.245-25.853-5.013s11.574-5.013 25.853-5.013c14.278 0 25.853 2.244 25.853 5.013Z" opacity=".444"/><defs><linearGradient id="a" x1="8.076" x2="52.571" y1="11.868" y2="49.813" gradientUnits="userSpaceOnUse"><stop stop-color="#5A9FD4"/><stop offset="1" stop-color="#306998"/></linearGradient><linearGradient id="b" x1="69.312" x2="53.355" y1="73.4" y2="51.024" gradientUnits="userSpaceOnUse"><stop stop-color="#FFD43B"/><stop offset="1" stop-color="#FFE873"/></linearGradient><radialGradient id="c" cx="0" cy="0" r="1" gradientTransform="matrix(0 -5.01431 22.0421 0 50.066 93.292)" gradientUnits="userSpaceOnUse"><stop stop-color="#B8B8B8" stop-opacity=".498"/><stop offset="1" stop-color="#7F7F7F" stop-opacity="0"/></radialGradient></defs></svg>
